X:1
T:Title
%%score { ( 1 3 ) | ( 2 4 ) }
L:1/8
M:4/4
K:C
V:1 treble nm="Grand Piano"
V:3 treble 
V:2 bass 
V:4 bass 
V:1
 z4 z2[Q:1/4=100] G2 | c2 E2 G2 AB | c2 [Af]2 [Ge]3 [EG] | A2 A2 G2 E2 | [DG]2 [CE]2 [B,D]3 [FG] | %5
 [EG]2 [DG]2 [Gc]2 [Ec]2 | [Ad]2 [Ae]2 [Af]2 [Gd][Gd] | [Ge][Gc][GB]A Gcde |[M:7/8] d- d3 [Ec]3 | %9
[M:1/8] [Ec] |[M:4/4] [Fc]2 [CFA]2 [CEG]2 [G,CE]>[CEG] | EG d2 e3 c | %12
 [Af]2 f2 e2[K:bass][K:treble] z2 | [DGB]2 [C^FA]2 [B,G]3 [B,=FG] | [CEc]2 [CGc]2 d2 dd | %15
 e2 e2 z4 | [Ge][Gc][GB]A Gcde |[M:7/8] d- d3 [Ec]3 |] %18
V:2
 z4 z2 G,2 | C2 E,2 G,2 A,B, | C2 [C,C]2 [C,C]3 [C,C] | [F,CF]2 [F,CF]2 [E,C]2 [C,G,C]2 | %4
 [B,,G,]2 [C,G,]2 [G,,G,]3 [G,B,] | [C,C]2 [F,B,]2 [E,C]2 [A,C]2 | %6
 [F,C]2 [E,^C]2 [D,D]2 [G,B,][G,B,] | [C,C][E,C][F,C][K:treble][F,CF] [G,CE][G,CE][G,B,F][G,CG] | %8
[M:7/8] [G,B,F]- [G,B,F]3[K:bass] [C,G,C]3 |[M:1/8] [C,G,] |[M:4/4] [F,A,]2 F,2 C,2 C,>C, | %11
 C,E,[K:treble] [G,B,G]2 [CG]3 [C_B] | .[F,C]2 .[A,CA]2 [CG]2[K:bass] B,,C, | D,2 D,2 G,3 G, | %14
 C,2 E,2[K:treble] [G,B,G]2 [G,B,G][G,B,G] | z2 C2[K:bass] z4 | %16
 [C,C][E,C][F,C][K:treble][F,CF] [G,CE][G,CE][G,B,F][G,CG] | %17
[M:7/8] [G,B,F]- [G,B,F]3[K:bass] [C,G,C]3 |] %18
V:3
 x8 | x8 | x8 | x8 | x8 | x8 | x8 | x8 |[M:7/8] x7 |[M:1/8] x |[M:4/4] x8 | [Cc]2 z2 z4 | %12
 z G, z B, z[K:bass] C,[K:treble][DGd][EGc] | x8 | x8 | z _B, z _B [Af]2 [Gd][Gd] | x8 | %17
[M:7/8] x7 |] %18
V:4
 x8 | x8 | x8 | x8 | x8 | x8 | x8 | x3[K:treble] x5 |[M:7/8] x4[K:bass] x3 |[M:1/8] x |[M:4/4] x8 | %11
 x2[K:treble] x6 | x6[K:bass] x2 | x8 | x4[K:treble] x4 | %15
 [CG]2 [A,A][K:bass]G, [F,C]2 [G,B,][G,B,] | x3[K:treble] x5 |[M:7/8] x4[K:bass] x3 |] %18

